task1.1/build/res/icons/mail-icon.svg

<svg width="32" height="26" viewBox="0 0 32 26" fill="none" xmlns="http://www.w3.org/2000/svg">
<g clip-path="url(#clip0)">
<path d="M29.1875 0H2.8125C1.26363 0 0 1.3464 0 3V23C0 24.648 1.258 26 2.8125 26H29.1875C30.7325 26 32 24.6581 32 23V3C32 1.352 30.742 0 29.1875 0ZM28.7991 2L16.0596 15.5889L3.20994 2H28.7991ZM1.875 22.5859V3.4046L10.9049 12.9539L1.875 22.5859ZM3.20081 24L12.2364 14.362L15.4025 17.7101C15.769 18.0977 16.3604 18.0965 16.7254 17.7071L19.8125 14.4142L28.7992 24H3.20081ZM30.125 22.5858L21.1383 13L30.125 3.41413V22.5858Z" fill="black"/>
</g>
<defs>
<clipPath id="clip0">
<rect width="32" height="26" fill="white"/>
</clipPath>
</defs>
</svg>

<svg width="32" height="26" fill="none" xmlns="http://www.w3.org/2000/svg"><g clip-path="url(#clip0)"><path d="M29.188 0H2.813C1.262 0 0 1.346 0 3v20c0 1.648 1.258 3 2.813 3h26.375C30.733 26 32 24.658 32 23V3c0-1.648-1.258-3-2.813-3zm-.389 2L16.06 15.589 3.21 2H28.8zM1.875 22.586V3.405l9.03 9.549-9.03 9.632zM3.201 24l9.035-9.638 3.166 3.348a.896.896 0 001.323-.003l3.087-3.293L28.8 24H3.201zm26.924-1.414L21.138 13l8.987-9.586v19.172z" fill="#000"/></g><defs><clipPath id="clip0"><path fill="#fff" d="M0 0h32v26H0z"/></clipPath></defs></svg>
